dist/img/handshake-arm-left.svg

<svg xmlns="http://www.w3.org/2000/svg" viewBox="0 0 216.2 75.6"><defs><style>.a{fill:none;}.b{fill:#635da8;}.c{fill:#fafaff;}</style></defs><title>handshake-arm-left</title><line class="a" x1="16.1" y1="74.6" x2="8.3" y2="74.6"/><path class="b" d="M16.2,81.1a1,1,0,0,1-1-1,0.94,0.94,0,0,1,1-1L24,79h0a1,1,0,0,1,1,1,0.94,0.94,0,0,1-1,1l-7.8.1h0Z" transform="translate(-7.9 -5.5)"/><line class="a" x1="43.4" y1="74.3" x2="25.9" y2="74.5"/><path class="b" d="M33.8,81a1,1,0,0,1-1-1,0.94,0.94,0,0,1,1-1l17.4-.2h0a1,1,0,0,1,1,1,0.94,0.94,0,0,1-1,1L33.8,81h0Z" transform="translate(-7.9 -5.5)"/><path class="c" d="M48,8L218.5,6.5a4.14,4.14,0,0,1,4.2,4.1l0.5,59.7a8.09,8.09,0,0,1-7.9,8.1L56,79.8" transform="translate(-7.9 -5.5)"/><path class="b" d="M56,80.8a1,1,0,0,1-1-1,0.94,0.94,0,0,1,1-1l159.2-1.4a6.9,6.9,0,0,0,6.9-7.1l-0.5-59.7a3.07,3.07,0,0,0-3.1-3.1L48,9a0.94,0.94,0,0,1-1-1,0.94,0.94,0,0,1,1-1L218.5,5.5A4.75,4.75,0,0,1,222.1,7a5.33,5.33,0,0,1,1.5,3.6l0.5,59.7a9.09,9.09,0,0,1-8.9,9.1L56,80.8h0Z" transform="translate(-7.9 -5.5)"/><line class="a" x1="14.2" y1="2.7" x2="32.6" y2="2.6"/><path class="b" d="M22.1,9.2a1,1,0,0,1-1-1,0.94,0.94,0,0,1,1-1L40.5,7a1,1,0,0,1,1,1,0.94,0.94,0,0,1-1,1l-18.4.2h0Z" transform="translate(-7.9 -5.5)"/><line class="a" x1="1" y1="2.8" x2="6.7" y2="2.8"/><path class="b" d="M8.9,9.3a1,1,0,0,1-1-1,0.94,0.94,0,0,1,1-1l5.7-.1h0a1,1,0,0,1,1,1,0.94,0.94,0,0,1-1,1l-5.7.1h0Z" transform="translate(-7.9 -5.5)"/><line class="a" x1="208.5" y1="23.4" x2="208.9" y2="65"/><path class="b" d="M216.8,71.2a0.92,0.92,0,0,1-1-.9L215.4,29a0.81,0.81,0,0,1,1-.8h0a0.91,0.91,0,0,1,1,.8l0.4,41.3a0.83,0.83,0,0,1-1,.9h0Z" transform="translate(-7.9 -5.5)"/><line class="a" x1="208.4" y1="7" x2="208.5" y2="18.1"/><path class="b" d="M216.4,24.2a0.91,0.91,0,0,1-1-.8l-0.1-11a0.94,0.94,0,0,1,1-1,1,1,0,0,1,1,1l0.1,11a0.85,0.85,0,0,1-1,.8h0Z" transform="translate(-7.9 -5.5)"/></svg>

<?xml version="1.0" encoding="utf-8"?>
<!-- Generator: Adobe Illustrator 19.2.1, SVG Export Plug-In . SVG Version: 6.00 Build 0)  -->
<svg version="1.1" id="Layer_1" xmlns="http://www.w3.org/2000/svg" xmlns:xlink="http://www.w3.org/1999/xlink" x="0px" y="0px"
	 viewBox="0 0 231.5 86.5" style="enable-background:new 0 0 231.5 86.5;" xml:space="preserve">
<style type="text/css">
	.st0{fill:#FF7396;}
	.st1{fill:#FFFFFF;}
</style>
<g>
	<line class="st0" x1="24" y1="80.1" x2="16.2" y2="80.1"/>
	<path class="st1" d="M16.2,81.1c-0.5,0-1-0.4-1-1c0-0.6,0.4-1,1-1l7.8-0.1c0,0,0,0,0,0c0.5,0,1,0.4,1,1c0,0.6-0.4,1-1,1L16.2,81.1
		C16.2,81.1,16.2,81.1,16.2,81.1z"/>
</g>
<g>
	<line class="st0" x1="51.3" y1="79.8" x2="33.8" y2="80"/>
	<path class="st1" d="M33.8,81c-0.5,0-1-0.4-1-1c0-0.6,0.4-1,1-1l17.4-0.2c0,0,0,0,0,0c0.5,0,1,0.4,1,1c0,0.6-0.4,1-1,1L33.8,81
		C33.8,81,33.8,81,33.8,81z"/>
</g>
<g>
	<path class="st0" d="M48,8l170.5-1.5c2.3,0,4.2,1.8,4.2,4.1l0.5,59.7c0,4.4-3.5,8-7.9,8.1L56,79.8"/>
	<path class="st1" d="M56,80.8c-0.5,0-1-0.4-1-1c0-0.6,0.4-1,1-1l159.2-1.4c3.9,0,7-3.2,6.9-7.1l-0.5-59.7c0-0.8-0.3-1.6-0.9-2.2
		s-1.4-0.9-2.2-0.9L48,9c-0.6,0-1-0.4-1-1s0.4-1,1-1l170.5-1.5c1.4,0,2.7,0.5,3.6,1.5s1.5,2.2,1.5,3.6l0.5,59.7c0,5-4,9-8.9,9.1
		L56,80.8C56,80.8,56,80.8,56,80.8z"/>
</g>
<g>
	<line class="st0" x1="22.1" y1="8.2" x2="40.5" y2="8.1"/>
	<path class="st1" d="M22.1,9.2c-0.5,0-1-0.4-1-1c0-0.6,0.4-1,1-1l18.4-0.2c0.5,0,1,0.4,1,1c0,0.6-0.4,1-1,1L22.1,9.2
		C22.1,9.2,22.1,9.2,22.1,9.2z"/>
</g>
<g>
	<line class="st0" x1="8.9" y1="8.3" x2="14.6" y2="8.3"/>
	<path class="st1" d="M8.9,9.3c-0.5,0-1-0.4-1-1c0-0.6,0.4-1,1-1l5.7-0.1c0,0,0,0,0,0c0.5,0,1,0.4,1,1c0,0.6-0.4,1-1,1L8.9,9.3
		C8.9,9.3,8.9,9.3,8.9,9.3z"/>
</g>
<g>
	<line class="st0" x1="216.4" y1="28.9" x2="216.8" y2="70.5"/>
	<path class="st1" d="M216.8,71.2c-0.5,0-1-0.3-1-0.9L215.4,29c0-0.6,0.4-0.8,1-0.8c0,0,0,0,0,0c0.5,0,1,0.3,1,0.8l0.4,41.3
		C217.8,71,217.4,71.2,216.8,71.2C216.8,71.2,216.8,71.2,216.8,71.2z"/>
</g>
<g>
	<line class="st0" x1="216.3" y1="12.5" x2="216.4" y2="23.6"/>
	<path class="st1" d="M216.4,24.2c-0.5,0-1-0.3-1-0.8l-0.1-11c0-0.6,0.4-1,1-1c0.6,0,1,0.5,1,1l0.1,11
		C217.4,24,216.9,24.2,216.4,24.2C216.4,24.2,216.4,24.2,216.4,24.2z"/>
</g>
</svg>
